src/lib/packages/icons/src/assets/line/print.svg

<svg xmlns="http://www.w3.org/2000/svg" width="24" height="24" fill="none"><path fill="currentColor" d="M18 6.25h-.25V5a.747.747 0 0 0-.22-.53l-2-2a.749.749 0 0 0-.53-.22H8c-.965 0-1.75.785-1.75 1.75v2.25H6c-2.418 0-3.75 1.332-3.75 3.75v5.5c0 1.241 1.01 2.25 2.25 2.25h1.75V20c0 .965.785 1.75 1.75 1.75h8c.965 0 1.75-.785 1.75-1.75v-2.25h1.75c1.24 0 2.25-1.009 2.25-2.25V10c0-2.418-1.332-3.75-3.75-3.75ZM7.75 4A.25.25 0 0 1 8 3.75h6.689l1.561 1.561v.939h-8.5V4Zm8.5 16a.25.25 0 0 1-.25.25H8a.25.25 0 0 1-.25-.25v-4.25h8.5V20Zm4-4.5a.75.75 0 0 1-.75.75h-1.75V15a.75.75 0 0 0-.75-.75H7a.75.75 0 0 0-.75.75v1.25H4.5a.75.75 0 0 1-.75-.75V10c0-1.577.673-2.25 2.25-2.25h12c1.577 0 2.25.673 2.25 2.25v5.5ZM18 11a1 1 0 1 1-2 0 1 1 0 0 1 2 0Z"/></svg>

<svg width="24" height="24" viewBox="0 0 24 24" fill="none" xmlns="http://www.w3.org/2000/svg">
<path d="M18 6.25H17.75V5C17.75 4.801 17.671 4.60997 17.53 4.46997L15.53 2.46997C15.389 2.32897 15.199 2.25 15 2.25H8C7.035 2.25 6.25 3.035 6.25 4V6.25H6C3.582 6.25 2.25 7.582 2.25 10V15.5C2.25 16.741 3.26 17.75 4.5 17.75H6.25V20C6.25 20.965 7.035 21.75 8 21.75H16C16.965 21.75 17.75 20.965 17.75 20V17.75H19.5C20.74 17.75 21.75 16.741 21.75 15.5V10C21.75 7.582 20.418 6.25 18 6.25ZM7.75 4C7.75 3.862 7.862 3.75 8 3.75H14.689L16.25 5.31104V6.25H7.75V4ZM16.25 20C16.25 20.138 16.138 20.25 16 20.25H8C7.862 20.25 7.75 20.138 7.75 20V15.75H16.25V20ZM20.25 15.5C20.25 15.914 19.913 16.25 19.5 16.25H17.75V15C17.75 14.586 17.414 14.25 17 14.25H7C6.586 14.25 6.25 14.586 6.25 15V16.25H4.5C4.087 16.25 3.75 15.914 3.75 15.5V10C3.75 8.423 4.423 7.75 6 7.75H18C19.577 7.75 20.25 8.423 20.25 10V15.5ZM18 11C18 11.552 17.552 12 17 12C16.448 12 16 11.552 16 11C16 10.448 16.448 10 17 10C17.552 10 18 10.448 18 11Z" fill="currentColor"/>
</svg>
